X:141
T:College Hornpipe. Le4.141
M:C|
L:1/8
Q:1/4=120
B:L.Leadley MS#4 c1850
Z:Village Music Project, 2016 Ruairidh Greig
K:Bb
BA|B2B,2B,2(FE)|DFB2B2(dB)|c2C2C2(cB)|Ac f2f2ga|
bagf gfed|edcB BAGF|GBAc Bdce|d2B2B2:|
|:FE|DFBF DFBF|G2E2E2(GF)|=EGcG EGcG|A2F2F2ed|
e2g2gfed|edcB BAGF|GBAc Bdce|d2[B2D2][B2D2]:|

